!!!OTL: Kandaaf, daat as eng löschteg Saach, S. 7
!!!id: R0044
**kern
*clefG2
*k[f#]
*G:
{8g
=1
8g
4.g
8d
4g
8d
=2yy
8g
=3
4ee
4dd
2dd}
=4
{4.ff#
8ee
8dd
8cc
8b
8a
=5
4g
4b
2a}
=6
{4.g
8d
4g
4b
=7
4dd
4cc
2cc}
=8
{4.ee
8dd
8cc
8b
8a
8b
=9
2.g}
4r
=10
{2b
2dd
=11
4b
8g
8b
2dd}
=12
{4ee
4dd
4ee
8dd
8dd
=13
2.gg}
4r
=14
{2dd
2b
=15
2dd
2b
=16
2a
2b
=17
2.g}
4r
==
*-
!!!minrhy: 8
!!!meters: 4/4 ]  ZZ[7
!!!cut: Kandaaf, daat as eng löschteg Saach, S. 7
!!!reg: Luxemburg
!!!trd: D'Fraen um Kanddaaf an der aler Zeit, Luxemburg 1929
!!!rhy1:   X_.XX_XX  X_X_X__
!!!rhy2: X_.XXXXX  X_X_X__
!!!key: R0044  08  G 4/4 ]  ZZ[7
!!!mod: HEPTATONIK IONISCH]  AMBITUS[11
!!!kad: 52415+11
!!!akz: 1165_7512_1154_6411_3535_66+1+1_53532311_
!!!fot: 'a__b__c__bs"d__e__f__
!!!for: 'a__b__c__bw_d__e__f__
!!!fok: 'Va_\__Va_\__~a_/__\__
!! PHRAS[VOLLTAKTIG]
!!!fkt: Kindstaufe-Lied
!! RUDEN, J.M.:
!! PR[33] 2K[2] 2G[12] 3K[7] 3G[7] 4A[2] 4Ü[0] 5A[0] 6K[0] 6G[0]
!! 7K[0] 7G[0] 8A[0] MEHR[0] SI[31] ABS[42] SR[14] SP[17]
!! ST[14] 2k[7] 2g[19] 3k[2] 3g[5] 4d[0] 4ü[0] 5d[2] 6k[0] 6g[0]
!! 7k[0] 7g[0] 8d[0] mehr[0] si[36] dm[-5] sr[26] sp[10]
!! 1F[16] 2F[47] 3F[27] 4F[0] LF[0] 2P[11] 3P[0] 4P[0] TRI[0] DF[4] AB[45]
!! TF[0] U3K[0] U3[0] U4[0] U4Ü[0] U5[0] U6K[0] U6[0] U7K[0] U7[0]
!! N1[0] N2K[0] N2[0] N3K[0] N3[0] N4[0] N4Ü[0] N5[30] N6K[0] N6[14]
!!!n7k: 0] N7[16] O1[12] O2K[0] O2[26] O3K[0] O3[2] HÖ[0
